X: 1
T: the High Reel
R: reel
S: Fiddle Hell Online 2022-4-1 handout for 1 handout for Contra Dance Piano workshop [Sue Songer]
Z: 2022 John Chambers <jc:trillian.mit.edu>
M: C|
L: 1/8
K: Amix
|: "A"a2ed     cAA2 |[1,3 cded cAA2 :|[2 "G"Bcdc BGG2 :| "A"cdef "G"g2fg | "D"af (3gfe fded | "G"Bcdc BGG :|
|: "A"(3cBA eA fAeA |[1,2 cAaf ecAB :|[3 "G"Bcdc BAGB :| "A"cdef "G"g2fg | "D"af (3gfe fded | "G"Bcdc BGG :|
